X:1003
T:Jumplines
C:{copyright}
R:{rhythm}
M:4/4
L:1/4
Q:1/4=120
K:C
%%score T1 T2 
V:T1 clef=treble-8  name="Sopran" snm="S"
V:T2 clef=treble-8  name="Alt" snm="A"
[V:T1] cdef |  "^:10"zdef  | "^@10@1" c4 |]
[V:T1] "^:12" cdef  | "^:11" fedc  | "^@11@2" c4 | "^@12@-2" z4]
[V:T2]  "^:20"CDEF | "^@20@4" C4 | C4|]
cccc|cccc|cccc|Cccc|]
%%%%zupfnoter.config
{
 "abc_parser" : "ABC2SVG",
 "produce":[0]
} 
